dataset/drawio/icon.svg

<?xml version="1.0" encoding="UTF-8" standalone="no"?>
<svg
   viewBox="0 0 128 128"
   style="display:inline;enable-background:new"
   version="1.0"
   id="svg11300"
   height="128"
   width="128"
   xml:space="preserve"
   xmlns:xlink="http://www.w3.org/1999/xlink"
   xmlns="http://www.w3.org/2000/svg"
   xmlns:svg="http://www.w3.org/2000/svg"
   xmlns:rdf="http://www.w3.org/1999/02/22-rdf-syntax-ns#"
   xmlns:cc="http://creativecommons.org/ns#"
   xmlns:dc="http://purl.org/dc/elements/1.1/"><title
     id="title4162">Adwaita Icon Template</title><defs
     id="defs3"><linearGradient
       id="linearGradient7"><stop
         style="stop-color:#be6b04;stop-opacity:1;"
         offset="0"
         id="stop2" /><stop
         id="stop3"
         offset="0.04166667"
         style="stop-color:#fb9f2d;stop-opacity:1;" /><stop
         style="stop-color:#be6b04;stop-opacity:1;"
         offset="0.08333334"
         id="stop4" /><stop
         id="stop5"
         offset="0.91666669"
         style="stop-color:#be6b04;stop-opacity:1;" /><stop
         style="stop-color:#fb9f2d;stop-opacity:1;"
         offset="0.95833331"
         id="stop6" /><stop
         style="stop-color:#be6b04;stop-opacity:1;"
         offset="1"
         id="stop7" /></linearGradient><linearGradient
       xlink:href="#linearGradient7"
       id="linearGradient2"
       x1="12"
       y1="66"
       x2="116"
       y2="66"
       gradientUnits="userSpaceOnUse" /></defs><metadata
     id="metadata4"><rdf:RDF><cc:Work
         rdf:about=""><dc:format>image/svg+xml</dc:format><dc:type
           rdf:resource="http://purl.org/dc/dcmitype/StillImage" /><dc:creator><cc:Agent><dc:title>GNOME Design Team</dc:title></cc:Agent></dc:creator><dc:source /><cc:license
           rdf:resource="http://creativecommons.org/licenses/by-sa/4.0/" /><dc:title>Adwaita Icon Template</dc:title><dc:subject><rdf:Bag /></dc:subject><dc:date /><dc:rights><cc:Agent><dc:title /></cc:Agent></dc:rights><dc:publisher><cc:Agent><dc:title /></cc:Agent></dc:publisher><dc:identifier /><dc:relation /><dc:language /><dc:coverage /><dc:description /><dc:contributor><cc:Agent><dc:title /></cc:Agent></dc:contributor></cc:Work><cc:License
         rdf:about="http://creativecommons.org/licenses/by-sa/4.0/"><cc:permits
           rdf:resource="http://creativecommons.org/ns#Reproduction" /><cc:permits
           rdf:resource="http://creativecommons.org/ns#Distribution" /><cc:requires
           rdf:resource="http://creativecommons.org/ns#Notice" /><cc:requires
           rdf:resource="http://creativecommons.org/ns#Attribution" /><cc:permits
           rdf:resource="http://creativecommons.org/ns#DerivativeWorks" /><cc:requires
           rdf:resource="http://creativecommons.org/ns#ShareAlike" /></cc:License></rdf:RDF></metadata><rect
     style="display:inline;fill:url(#linearGradient2);fill-opacity:1;stroke:none;stroke-width:0.25;stroke-linecap:butt;stroke-linejoin:miter;stroke-miterlimit:4;stroke-dasharray:none;stroke-dashoffset:0;stroke-opacity:1;marker:none;marker-start:none;marker-mid:none;marker-end:none;paint-order:normal;enable-background:new"
     id="rect1"
     width="104"
     height="100"
     x="12"
     y="16"
     rx="8"
     ry="8" /><rect
     style="display:inline;fill:#f08705;fill-opacity:1;stroke:none;stroke-width:0.25;stroke-linecap:butt;stroke-linejoin:miter;stroke-miterlimit:4;stroke-dasharray:none;stroke-dashoffset:0;stroke-opacity:1;marker:none;marker-start:none;marker-mid:none;marker-end:none;paint-order:normal;enable-background:new"
     id="rect1711"
     width="104"
     height="100"
     x="12"
     y="12"
     rx="8"
     ry="8" /><style
     type="text/css"
     id="style1">
	.st0{fill:#F08705;}
	.st1{fill:#DF6C0C;}
	.st2{fill:#FFFFFF;}
	.st3{fill:#333333;}
</style><path
     id="path7"
     style="stroke-width:0.618812"
     class="st1"
     d="M 50.220703 112 L 108 112 C 112.30069 112 115.78738 108.63933 115.99023 104.39062 L 115.87695 63.423828 L 79.427734 25.861328 L 42.669922 71.529297 L 30.294922 91.765625 L 50.220703 112 z " /><path
     class="st2"
     d="M 98.11634,67.878713 H 87.59653 L 76.45792,48.943069 C 78.93317,48.44802 80.7896,46.220297 80.7896,43.621287 V 29.326733 c 0,-3.032179 -2.41336,-5.445545 -5.44554,-5.445545 H 56.7797 c -3.03218,0 -5.44554,2.413366 -5.44554,5.445545 v 14.294554 c 0,2.660891 1.85643,4.826733 4.2698,5.321782 L 44.46535,67.940594 H 33.94554 c -3.03217,0 -5.44554,2.413366 -5.44554,5.445544 v 14.294555 c 0,3.032178 2.41337,5.445544 5.44554,5.445544 H 52.5099 c 3.03218,0 5.44555,-2.413366 5.44555,-5.445544 V 73.386138 c 0,-3.032178 -2.41337,-5.445544 -5.44555,-5.445544 H 50.71535 L 61.7302,49.128713 h 8.60148 l 11.07674,18.811881 h -1.85644 c -3.03218,0 -5.44554,2.413366 -5.44554,5.445544 v 14.294555 c 0,3.032178 2.41336,5.445544 5.44554,5.445544 h 18.56436 c 3.03217,0 5.44554,-2.413366 5.44554,-5.445544 V 73.386138 c 0,-3.032178 -2.41337,-5.507425 -5.44554,-5.507425 z"
     id="path3"
     style="stroke-width:0.618812" /></svg>

<svg xmlns="http://www.w3.org/2000/svg" xmlns:xlink="http://www.w3.org/1999/xlink" xml:space="preserve" width="128" height="128" style="display:inline" viewBox="0 0 128 128"><title>Adwaita Icon Template</title><defs><linearGradient id="a"><stop offset="0" style="stop-color:#be6b04;stop-opacity:1"/><stop offset=".042" style="stop-color:#fb9f2d;stop-opacity:1"/><stop offset=".083" style="stop-color:#be6b04;stop-opacity:1"/><stop offset=".917" style="stop-color:#be6b04;stop-opacity:1"/><stop offset=".958" style="stop-color:#fb9f2d;stop-opacity:1"/><stop offset="1" style="stop-color:#be6b04;stop-opacity:1"/></linearGradient><linearGradient xlink:href="#a" id="b" x1="12" x2="116" y1="66" y2="66" gradientUnits="userSpaceOnUse"/></defs><rect width="104" height="100" x="12" y="16" rx="8" ry="8" style="display:inline;fill:url(#b);fill-opacity:1;stroke:none;stroke-width:.25;stroke-linecap:butt;stroke-linejoin:miter;stroke-miterlimit:4;stroke-dasharray:none;stroke-dashoffset:0;stroke-opacity:1;marker:none;marker-start:none;marker-mid:none;marker-end:none;paint-order:normal"/><rect width="104" height="100" x="12" y="12" rx="8" ry="8" style="display:inline;fill:#f08705;fill-opacity:1;stroke:none;stroke-width:.25;stroke-linecap:butt;stroke-linejoin:miter;stroke-miterlimit:4;stroke-dasharray:none;stroke-dashoffset:0;stroke-opacity:1;marker:none;marker-start:none;marker-mid:none;marker-end:none;paint-order:normal"/><path d="M50.22 112H108c4.3 0 7.787-3.36 7.99-7.61l-.113-40.966-36.45-37.563L42.67 71.53 30.295 91.766z" style="fill:#df6c0c;stroke-width:.618812"/><path d="M98.116 67.879h-10.52L76.459 48.943c2.475-.495 4.332-2.723 4.332-5.322V29.327a5.414 5.414 0 0 0-5.446-5.446H56.78a5.414 5.414 0 0 0-5.446 5.446V43.62c0 2.661 1.857 4.827 4.27 5.322L44.465 67.941h-10.52a5.414 5.414 0 0 0-5.445 5.445v14.295a5.414 5.414 0 0 0 5.446 5.445H52.51a5.414 5.414 0 0 0 5.445-5.445V73.386a5.414 5.414 0 0 0-5.445-5.445h-1.795L61.73 49.129h8.602L81.408 67.94h-1.856a5.414 5.414 0 0 0-5.446 5.445v14.295a5.414 5.414 0 0 0 5.446 5.445h18.564a5.414 5.414 0 0 0 5.446-5.445V73.386c0-3.032-2.413-5.507-5.446-5.507" style="fill:#fff;stroke-width:.618812"/></svg>
